!!!COM:	Tinctoris, Johannes
!!!CDT:	~1435///-1511//
!!!OPR:	Missa Sine nomine i
!!!ONM:	3
!!!OTL:	Credo
!!!AGN:	Mass; Credo
!!!SCT:	Tin1002c
!!!SCA:	Tin1002c
!!!voices:	3
**kern	**kern	**kern
*staff3	*staff2	*staff1
*Ivox	*Ivox	*Ivox
*I"Bassus	*I"Tenor	*I"Altus
*I'B	*I'T	*I'A
*>[A,B,C,D,E]	*>[A,B,C,D,E]	*>[A,B,C,D,E]
*>A	*>A	*>A
*clefF4	*clefF4	*clefGv2
*k[b-e-]	*k[b-e-]	*k[b-e-]
*M3/1	*M3/1	*M3/1
*met(O)	*met(O)	*met(O)
!!section: Patrem omnipotentem
!!!OMD: Patrem omnipotentem
=1-	=1-	=1-
2.C/	1.C	0c
4BB-/	.	.
4AA/	.	.
4FF/	.	.
2C/	2E-\	.
1GG	1D	1B-
=2	=2	=2
2.CC/	2C/	1.c
.	1E-	.
4CC/	.	.
2EE-/	.	.
2DD/	2F\	2d\
[1CC	[1G	2.e-\
.	.	8d\L
.	.	8c\J
=3	=3	=3
2CC/]	0G]	2e-\
2.GG/	.	2.d\
4AA/	.	4c\
4BB-/	.	2B-\
4C/	.	.
1D	1F#i	1A
=4	=4	=4
2r	0G	1G
2.GG/	.	.
.	.	2r
4AA/	.	.
2BB-/	.	2.G/
2C/	1r	.
.	.	4A/
2GG/	.	2B-\
=5	=5	=5
2.AA/	2.C/	0c
4BB-/	4D\	.
2C/	2E-\	.
1FF	1F	.
.	.	2A/
2GG/	2D\	2B-\
=6	=6	=6
2C/	2E-\	2c\
2BB-/	2F\	2.d\
2GG/	2G\	.
.	.	4c\
2AA/	2C/	1c
1GG	1D	.
.	.	2Bni\
=7	=7	=7
2r	[0.C	0.c
2.C/	.	.
4D\	.	.
2E-\	.	.
2C/	.	.
2AA-/	.	.
=8	=8	=8
2FF/	1C]	2r
2CC/	.	2.G/
0EE-	2.G\	.
.	.	4A/
.	.	2B-\
.	4A\	.
.	2B-\	2G/
.	2G\	2E-/
=9	=9	=9
1.CC	2.E-\	2r
.	.	2.e-\
.	4D\	.
.	2C/	.
.	.	8d\L
.	.	8e-\
2CC/	2C/	8f\
.	.	8e-\
.	.	8d\
.	.	8c\J
4GG/	4BB-/	2d\
2BB-/	2D\	.
.	.	4B-\
4AA-/	4E-\	[4c\
=10	=10	=10
2FF/	4.F\	8c/L]
.	.	8B-/
.	.	8A/
.	8E-\	8G/J
4GG/	4D\	4B-\
4AA/	4C/	4c\
2BB-/	2D\	2F/
2GG/	2BB-/	2.B-\
1FF	1C	.
.	.	8A/L
.	.	8G/J
.	.	2A/
=11	=11	=11
2BBB-/	2r	0B-
2.EE-/	2BB-/	.
.	2.E-\	.
4FF/	.	.
2GG/	.	.
.	4F\	.
4EE-/	2G\	1r
2GG/	.	.
.	4E-\	.
4AA/	[4F\	.
=12	=12	=12
4.BB-/	8F\L]	0.r
.	8E-\	.
.	8D\	.
8AA/	8C\J	.
4GG/	4E-\	.
4FF/	4F\	.
2GG/	2BB-/	.
2EE-/	2.E-\	.
1FF	.	.
.	8D/L	.
.	8C/J	.
.	2D\	.
=13	=13	=13
1EE-	1E-	1.G
2r	1C	.
2.E-\	.	2.c\
.	2r	.
8D/L	.	8B-/L
8C/J	.	8A/J
2D\	2F\	4B-\
.	.	8c\L
.	.	8d\J
=14	=14	=14
2C/	0G	2e-\
2BB-/	.	2.d\
2C/	.	.
.	.	4c\
2E-\	.	1c
1D	2.F\	.
.	.	2Bni\
.	8E-\L	.
.	8F\J	.
=15	=15	=15
1C	2.G\	1c
.	2E-\	.
2AA-/	.	1r
.	2F\	.
2BB-/	.	.
.	2D\	.
4GG/	.	1r
2C/	4E-\	.
.	2D\	.
4BB-/	.	.
=16	=16	=16
2C/	4r	0.r
.	4C/	.
2C/	2E-\	.
2FF/	8F\L	.
.	8G\J	.
.	2A-i\	.
2AA-i/	.	.
.	2F\	.
1GG	.	.
.	8Eni\L	.
.	8D\J	.
.	2Eni\	.
=17	=17	=17
0FF	1.F	1.c
.	2C/	1A
1DD	1F	.
.	.	2F/
=18	=18	=18
0CC	1E-	0G
.	2r	.
.	2.C/	.
1C	.	1E-
.	4D\	.
.	2E-\	.
=19	=19	=19
1.BB-	0F	0D
4C/	.	.
4D\	.	.
1E-	1G	2.C/
.	.	4D/
=20	=20	=20
0.C	2r	1E-
.	1G	.
.	.	2r
.	2.E-\	2.G/
.	4F\	4A/
.	4E-\	4G/
.	8D/L	8F/L
.	8C/J	8E-/J
=21	=21	=21
2BB-/	2D\	2F/
2.C/	2.E-\	2E-/
.	.	1C
4BB-/	4D\	.
2AA-/	1C	.
1GG	.	1D
.	2BBni/	.
=22	=22	=22
2r	1.C	0C
1CC	.	.
1FF	2AA/	.
.	1GG	1r
2EEni/	.	.
=23	=23	=23
2FF/	2FF/	1.C
2CC/	2GG/	.
2FF/	2AA/	.
2AA/	2FF/	1F
1GG	2.BB-/	.
.	.	2Eni/
.	8AA/L	.
.	8BB-/J	.
=24	=24	=24
0FF	1.C	2F/
.	.	2C/
.	.	2F/
.	1F	2A/
1C	.	1G
.	2Eni\	.
=25	=25	=25
0FF	2F\	2F/
.	2C/	2.c\
.	2F\	.
.	.	8d\L
.	.	8e-\J
.	2A\	1f
1CC	1G	.
.	.	2eni\
=26	=26	=26
2FF/	2F\	2f\
4C/	2G\	4e-\
4FF/	.	2d\
4BB-/	4F\	.
4AA/	2F\	4c\
4FF/	.	2.c\
4CC/	4E-\	.
2FF/	2.C/	.
.	.	4B-\
2FF/	.	4A/
.	4D\	8G/L
.	.	8F/J
=27	=27	=27
1CC	1E-	1G
*	*	*M9/8
*	*	*met(3/2)
2FF/	1r	3C/
.	.	3D/
2GG/	.	.
.	.	3E-/
2FF/	2.C/	3.F/
4EE-/	.	6G/
.	.	6A/
4DD/	4D\	.
.	.	6B-\
=28	=28	=28
2CC/	4E-\	3c\
.	4F\	.
.	.	3d\
4r	2G\	.
.	.	3e-\
4CC/	.	.
2DD/	2F\	3.f\
4CC/	1G	6e-\
.	.	6d\
2.GG/	.	.
.	.	6c\
.	.	3e-\
.	.	3.d\
2BB-/	2F\	.
.	.	6c\
=29	=29	=29
2C/	2E-\	3.c\
2r	4D\	6B-\
.	.	6A/
.	4C/	.
.	.	6G/
4GG/	2D\	3B-\
4DD/	.	.
.	.	3A/
4FF/	4C/	.
.	.	3G/
4EE-/	2C/	.
2CC/	.	3%2c
.	4E-\	.
2GG/	2D\	.
.	.	3B-\
=30	=30	=30
*	*	*M3/1
*	*	*met(O)
2AA-/	2C/	2c\
2GG/	2BB-/	2.d\
1AA-i	1C	.
.	.	4c\
.	.	1c
1GG	1D	.
.	.	2Bni\
=31	=31	=31
2CC/	1C	[0.c
1FF	.	.
.	2r	.
2r	2F\	.
2FF/	4F\	.
.	2F\	.
4FF/	.	.
[4FF/	4F\	.
=32	=32	=32
4FF/]	[0.C	0c]
4FF/	.	.
2CC/	.	.
2CC/	.	.
2.FF/	.	.
.	.	2r
2FF/	.	.
.	.	2c\
[4FF/	.	.
=33	=33	=33
4FF/]	0C]	4c\
4EE-/	.	2c\
2FF/	.	.
.	.	4c\
2EE-/	.	1G
2CC/	.	.
2.FF/	2C/	1r
.	[2F\	.
[4BB-/	.	.
=34	=34	=34
4BB-/]	4F\]	1r
4AA/	2F\	.
2FF/	.	.
.	2F\	.
2GG/	.	1r
.	4E-\	.
4FF/	2F\	.
4DD/	.	.
4CC/	2E-\	2G/
2C/	.	.
.	2C/	[2c\
[4FF/	.	.
=35	=35	=35
8FF/L]	2F\	4c\]
8GG/	.	.
8AA/	.	2c\
8BB-/J	.	.
4C/	4E-\	.
4AA/	4C/	2c\
2GG/	2D\	.
.	.	4B-\
4CC/	2.C/	2c\
4.FF/	.	.
.	.	2r
8EE-/L	.	.
8DD/	8BBni/L	.
8CC/J	8AA/J	.
2DD/	2BBni/	2f\
=36	=36	=36
2CC/	2C/	2e-\
2BBB-/	2F\	2d\
4r	2E-\	2c\
4CC/	.	.
2GG/	2D\	4r
.	.	4B-\
4AA/	2C/	4c\
4FF/	.	4A/
4C/	4r	[2G/
4D\	4BB-/	.
=37	=37	=37
4E-\	4C/	4G/]
4C/	4AA/	4A/
1.D	2.GG/	4B-\
.	.	4c\
.	.	2.d\
.	4AA/	.
.	4BB-/	.
.	4C/	4e-\
1BB-	2.D\	2f\
.	.	2d\
.	4E-\	.
=38	=38	=38
2FF/	2F\	2c\
2GG/	2D\	4r
.	.	4B-\
4r	2C/	2e-\
4C/	.	.
4AA/	2F\	8d\L
.	.	8c\J
2BB-/	.	2d\
.	2.G\	.
4C/	.	4c\
4GG/	.	4B-\
8AA/L	4F\	4A/
8BB-/J	.	.
=39	=39	=39
2C/	4E-\	2G/
.	4D\	.
2FF/	2.C/	2A/
2EE-/	.	2G/
.	4BB-/	.
2CC/	2E-\	1c
1GG	1D	.
.	.	2Bni\
=40	=40	=40
1CC	0C	0c
1r	.	.
2C/	1r	1r
2D\	.	.
=41	=41	=41
2E-\	2r	2G/
2r	2F\	2A/
2D\	1r	2B-\
2C/	.	2c\
1r	2D\	2A/
.	[2E-\	2G/
=42	=42	=42
1r	4E-\]	2.G/
.	2C/	.
.	4BB-/	2G/
1r	2C/	.
.	.	4E-/
.	2GG/	4D/
.	.	2G/
1AA	1r	.
.	.	4F#i/
.	.	4F#i/
.	.	8Eni/L
.	.	8F#i/J
=43	=43	=43
1GG	1r	1G
1r	0G	1.C
1r	.	.
.	.	[2E-/
=44	=44	=44
1C	1r	4E-/]
.	.	4F/
.	.	2G/
1r	1D	4F/
.	.	4.F/
.	.	8E-/
.	.	4D/
1r	2E-\	2C/
.	2D\	2F/
=45	=45	=45
0C	0.r	2E-/
.	.	4C/
.	.	2G/
.	.	4A-/
.	.	4G/
.	.	8F/L
.	.	8E-/J
1BBni	.	8F/L
.	.	8E-/
.	.	8D/
.	.	8C/J
.	.	2D/
=46	=46	=46
0.r	0C	1.E-
.	.	2C/
.	1r	1C
=47	=47	=47
!!LO:TX:Z=12:t=Qui propter
0C	0G	0E-
1AA	1C	1F
=48	=48	=48
2.GG/	1.D	0G
4AA/	.	.
2BB-/	.	.
1C	2.E-\	.
.	.	[1G
.	4C/	.
2BB-/	2D\	.
=49	=49	=49
2C/	2E-\	2G/]
2.E-\	2C/	1G
.	2BB-/	.
4D\	.	.
2C/	2E-\	2G/
2.BBn/	1D	[1G
4AA/	.	.
=50	=50	=50
1C	1C	0G]
1CC	2r	.
.	1.E-	.
2.EE-/	.	2r
.	.	[2B-\
4FF/	.	.
=51	=51	=51
2GG/	1D	2B-\]
2DD/	.	1A
2GG/	1C	.
2CC/	.	1G
2C/	2.E-\	.
2AA/	.	2c\
.	4F\	.
=52	=52	=52
0GG	4G\	2B-\
.	4A\	.
.	2.B-\	2.d\
.	4A\	4c\
.	1G	2B-\
1DD	.	1A
.	2F#i\	.
=53	=53	=53
2r	0G	0G
1EE-	.	.
2CC/	.	.
2GG/	1r	1r
2AA/	.	.
=54	=54	=54
2GG/	1r	2G/
2C/	.	2A/
2BB-/	2D\	2G/
2C/	2E-\	2c\
2D\	2D\	2B-\
2E-\	2G\	2c\
=55	=55	=55
2D\	2F\	2d\
2C/	4G\	2e-\
.	4A\	.
2BB-/	4B-\	2d\
.	2.A\	.
2FF/	.	2c\
1GG	2G\	1Bn
.	4F\	.
.	4E-\	.
=56	=56	=56
[0.GG	2D\	[0.Bni
.	2G\	.
.	2D\	.
.	2.G\	.
.	4D\	.
.	2G\	.
=57	=57	=57
0.GG]	2D\	0.B]
.	2.G\	.
.	4F\	.
.	2E-\	.
.	1D	.
=58	=58	=58
1CC	2r	2c\
.	1C	2.e-\
1C	.	.
.	.	4d\
.	2.E-\	2c\
2r	.	2B-\
.	4D\	.
2E-\	4C/	2c\
.	4BB-/	.
=59	=59	=59
2D\	2BB-/	2d\
2.E-\	2.C/	1G
4D\	4BB-/	.
2C/	2AA/	1c
1D	1GG	.
.	.	2Bni\
=60	=60	=60
0.Cl	0.Gl	0.cl
!!LO:LB:i:g=z
=61||	=61||	=61||
*>C	*>C	*>C
*clefF4	*clefF4	*clefGv2
*k[b-e-]	*k[b-e-]	*k[b-e-]
*M2/1	*M2/1	*M2/1
*met(C|)	*met(C|)	*met(C|)
!!section: Et incarnatus est
!!!OMD: Et incarnatus est
0r	0G	[0Bn
=62	=62	=62
0r	1.G	0B_
.	4F\	.
.	4E-\	.
=63	=63	=63
0r	2.D\	0B]
.	4E-\	.
.	1D	.
=64	=64	=64
0r	2.C/	[0c
.	4D\	.
.	2E-\	.
.	[2F\	.
=65	=65	=65
0r	2F\]	0c]
.	2.A-\	.
.	4G\	.
.	2F\	.
=66	=66	=66
0r	2E-\	1.c
.	2F\	.
.	[1C	.
.	.	4B-\
.	.	4A/
=67	=67	=67
0r	2C/]	2.G/
.	1.E-	.
.	.	8A/L
.	.	8B-/J
.	.	4c\
.	.	4B-\
.	.	4A/
.	.	4G/
=68	=68	=68
0r	1D	1F
.	2r	1G
.	2C/	.
=69	=69	=69
0r	1G	1.C
.	1E-	.
.	.	[2E-/
=70	=70	=70
0r	1C	1E-]
.	2r	1D
.	2F\	.
=71	=71	=71
0r	2E-\	2r
.	1G	2C/
.	.	1G
.	[2C/	.
=72	=72	=72
0r	2C/]	1E-
.	2.AA-/	.
.	.	1C
.	4BB-/	.
.	2C/	.
=73	=73	=73
0r	2GG/	2D/
.	1C	2E-/
.	.	1D
.	2BBni/	.
=74	=74	=74
0C	1C	0C
.	2r	.
.	[2E-\	.
=75	=75	=75
[0C	2E-\]	1r
.	2F\	.
.	[1G	[1e-
=76	=76	=76
0C]	2G\]	1e-]
.	2E-\	.
.	2.G\	1e-
.	4A\	.
=77	=77	=77
0GG	1B-	0d
.	2r	.
.	[2G\	.
=78	=78	=78
[0GG	1G]	1r
.	[1G	[1d
=79	=79	=79
1GG]	2G\]	1d]
.	4F\	.
.	4E-\	.
1GG	2D\	1d
.	2F\	.
=80	=80	=80
1AA	1C	0c
1C	1E-	.
=81	=81	=81
2BB-/	[0D	1r
1.GG	.	.
.	.	[1Bni
=82	=82	=82
2GG/	0D]	1B]
4FF/	.	.
4EE-/	.	.
2DD/	.	1Bni
2GG/	.	.
=83	=83	=83
2CC/	1C	0c
2.FF/	.	.
.	2.F\	.
4EE-/	.	.
2FF/	.	.
.	4E-\	.
=84	=84	=84
2DD/	2F\	1d
2GG/	1G	.
2CC/	.	2e-\
[2DD/	2F\	[2f\
=85	=85	=85
2DD/]	2D\	2f\]
2EE-/	2C/	2e-\
1BBB-	[1F	[1d
=86	=86	=86
1r	2F\]	2d\]
.	4E-\	4c\
.	4D\	4B-\
2r	2.E-\	1c
2CC/	.	.
.	4D\	.
=87	=87	=87
2GG/	1BB-	2d\
2.EE-/	.	2.G/
.	2.E-\	.
4FF/	.	4A/
[2GG/	.	[2B-\
.	4F\	.
=88	=88	=88
4GG/]	2.G\	4B-\]
4AA/	.	4c\
1.BB-	.	2.d\
.	4A\	.
.	2.B-\	.
.	.	4e-\
.	.	2f\
.	4A\	.
=89	=89	=89
1C	2G\	2e-\
.	4F\	4d\
.	4E-\	4e-\
2.BB-/	2D\	4f\
.	.	4e-\
.	[2G\	4d\
4AA/	.	4c\
=90	=90	=90
1GG	4G\]	2.Bni\
.	4F\	.
.	2E-\	.
.	.	4A/
1GG	1D	1Bni
=91	=91	=91
0CC	0C	0c
=92	=92	=92
0r	0r	0r
=93	=93	=93
0CC	1.C	0c
.	4BB-/	.
.	4AA/	.
=94	=94	=94
1GG	1BB-	0d
1GG	1BB-	.
=95	=95	=95
2.AA/	2.C/	0c
4BB-/	4D\	.
2C/	2E-\	.
[2D\	[2F\	.
=96	=96	=96
4D\]	4F\]	0A
4C/	4E-\	.
4D\	4D\	.
4E-\	4C/	.
4F\	1D	.
4E-\	.	.
4D\	.	.
4C/	.	.
=97	=97	=97
1D	1GG	1.B-
[1GG	1r	.
.	.	[2G/
=98	=98	=98
2GG/]	1BB-	2G/]
2GG/	.	2G/
1D	1GG	1B-
=99	=99	=99
1r	1AA	1c
1BB-	1GG	1r
=100	=100	=100
1FF	2.AA/	0c
.	4BB-/	.
1AA	1C	.
=101	=101	=101
2.GG/	1BB-	0d
4AA/	.	.
2BB-/	1r	.
[2GG/	.	.
=102	=102	=102
2GG/]	0D	1r
2FF/	.	.
1GG	.	1B-
=103	=103	=103
1C	0E-	2G/
.	.	2.c\
1r	.	.
.	.	4B-\
.	.	2G/
=104	=104	=104
0D	2.F\	1A
.	4G\	.
.	1A	2D/
.	.	[2d\
=105	=105	=105
1BB-	1B-	4d\]
.	.	4c\
.	.	2d\
1C	[1G	1e-
=106	=106	=106
1GG	2G\]	1d
.	2F\	.
1AA-	2E-\	[1c
.	2C/	.
=107	=107	=107
2.GG/	0D	2c\]
.	.	4Bni\
4FF/	.	4A/
1GG	.	1Bni
=108	=108	=108
2r	0C	0c
2CC/	.	.
2FF/	.	.
4GG/	.	.
4AA/	.	.
=109	=109	=109
1BB-	0D	1r
1GG	.	1B-
=110	=110	=110
0C	0E-	1G
.	.	1c
=111	=111	=111
0GG	0D	2B-\
.	.	2G/
.	.	2.B-\
.	.	4c\
=112	=112	=112
1BB-	1GG	1d
1C	1G	1e-
=113	=113	=113
1D	2F\	0d
.	2.F\	.
1BB-	.	.
.	4E-\	.
.	2D\	.
=114	=114	=114
2.C/	2E-\	1c
.	2.F\	.
4BB-/	.	.
2C/	.	[1c
.	4E-\	.
[2FF/	4D\	.
.	4C/	.
=115	=115	=115
2FF/]	1D	2c\]
2.GG/	.	4B-\
.	.	4A/
.	1D	1B-
4FF/	.	.
2GG/	.	.
=116	=116	=116
2.EE-/	1C	0c
4DD/	.	.
2EE-/	[1C	.
[2FF/	.	.
=117	=117	=117
4FF/]	2C/]	0r
4EE-/	.	.
4DD/	4BBni/	.
4CC/	4AA/	.
1DD	1BBni	.
=118	=118	=118
1CC	0C	0r
2r	.	.
[2FF/	.	.
=119	=119	=119
2FF/]	0r	0c
2EE-/	.	.
2FF/	.	.
[2CC/	.	.
=120	=120	=120
2CC/]	0C	0r
2.FF/	.	.
4GG/	.	.
2AA/	.	.
=121	=121	=121
2BB-/	0D	0r
1GG	.	.
[2FF/	.	.
=122	=122	=122
2FF/]	0C	0r
1CC	.	.
[2FF/	.	.
=123	=123	=123
2FF/]	0AA	0r
2.C/	.	.
4BB-/	.	.
2AA/	.	.
=124	=124	=124
1.GG	0r	0B-
4FF/	.	.
4EE-/	.	.
=125	=125	=125
1FF	0r	1A
2EE-/	.	1G
[2CC/	.	.
=126	=126	=126
2CC/]	0C	0r
2.FF/	.	.
4GG/	.	.
2AA/	.	.
=127	=127	=127
2GG/	0D	0r
2.BB-/	.	.
4AA/	.	.
[2GG/	.	.
=128	=128	=128
2GG/]	0r	0d
4FF/	.	.
4EE-/	.	.
1DD	.	.
=129	=129	=129
2r	0r	0e-
2CC/	.	.
1C	.	.
=130	=130	=130
2BB-/	0r	0d
1GG	.	.
2FF/	.	.
=131	=131	=131
2GG/	0r	1B-
2BB-/	.	.
1AA	.	1c
=132	=132	=132
2r	0D	0r
2.GG/	.	.
4AA/	.	.
2BB-/	.	.
=133	=133	=133
2C/	[0C	0r
2.FF/	.	.
4GG/	.	.
[2AA/	.	.
=134	=134	=134
4AA/]	1C]	0r
4GG/	.	.
4FF/	.	.
4EE-/	.	.
1DD	1BBni	.
=135	=135	=135
0CCl	0Cl	0r
!!LO:LB:i:g=z
=136||	=136||	=136||
*>D	*>D	*>D
*clefF4	*clefF4	*clefGv2
*k[b-e-]	*k[b-e-]	*k[b-e-]
*M3/1	*M3/1	*M3/1
*met(O)	*met(O)	*met(O)
!!section: Et in Spiritum Sanctum
!!!OMD: Et in Spiritum Sanctum
1C	1.C	1G
2AA/	.	2A/
2GG/	2D\	2B-\
2C/	2E-\	2c\
2BB-/	2F\	[2d\
=137	=137	=137
1GG	2.G\	4d\]
.	.	4c\
.	.	4B-\
.	4F\	4A/
2r	4E-\	2B-\
.	4D\	.
2C/	2E-\	1c
1GG	1D	.
.	.	2Bni\
=138	=138	=138
2CC/	0C	1c
1FF	.	.
.	.	2r
2.C/	.	1G
.	2r	.
4BB-/	.	.
2AA/	2C/	2A/
=139	=139	=139
2GG/	2D\	2B-\
1EE-	2E-\	2G/
.	2C/	2E-/
2.C/	2AA-/	2r
.	2r	1E-
4BB-/	.	.
2C/	[2AA-i/	.
=140	=140	=140
2FF/	2AA-/]	2F/
2EE-/	2BB-/	2G/
2CC/	2C/	2E-/
1FF	2AA-i/	1C
.	1FF	.
2DD/	.	2F/
=141	=141	=141
2BBB-/	1BB-	2D/
2.EE-/	.	2.G/
.	2GG/	.
4DD/	.	4F/
2CC/	1C	2E-/
1GG	.	1D
.	2BBni/	.
=142	=142	=142
1CC	1C	1C
1C	1E-	2r
.	.	1c
2r	1F	.
2BB-/	.	2d\
=143	=143	=143
*	*	*M6/2
*	*	*met(2/1)
*	*	*rscale:2
2EE-/	1.G	1.e-
2CC/	.	.
2C/	.	.
2.D\	2F\	1.d
.	1D	.
4C/	.	.
2BB-/	.	.
=144	=144	=144
2C/	2E-\	1.c
1FF	2.F\	.
.	4E-\	.
2.GG/	4D\	1Bn
.	4C/	.
.	1D	.
4FF/	.	.
2GG/	.	2Bni\
=145	=145	=145
2.AA/	2r	1c
.	1C	.
4GG/	.	.
2FF/	.	2r
2GG/	2BB-/	2.G/
2r	2C/	.
.	.	4A/
2GG/	2D\	[2B-\
=146	=146	=146
2EE-/	1E-	4B-\]
.	.	8A/L
.	.	8B-/J
2CC/	.	1c
2r	2F\	.
2.EE-/	2.G\	2.B-\
4FF/	4F\	4A/
4GG/	2E-\	2G/
4AA/	.	.
=147	=147	=147
2BB-/	2D\	2F/
2.C/	2C/	1E-
.	1G	.
4BB-/	.	.
2C/	.	2.e-\
4AA-/	1F	.
2.BB-/	.	8d\L
.	.	8c\J
.	.	2d\
=148	=148	=148
*	*	*M3/1
*	*	*met(3/2)
*	*	*rscale:3
2EE-/	2E-\	3%2.e-
2.AA-i/	2.C/	.
.	.	3%2.r
4BB-/	4D\	.
2C/	2E-\	.
3%2FFV	1F	3%2c
[3BB-/Z	.	[3d\
=149	=149	=149
3BB-/]V	1G	3d\]
3%2CZ	.	3%2e-
1FF	1.F	3.f\
.	.	6e-\
.	.	3d\
1r	.	3c\
.	.	3%2d
.	2D\	.
=150	=150	=150
1r	2E-\	3.c\
.	4D\	6B-\
.	.	6A/
.	4C/	.
.	.	6G/
2C/	2E-\	3%2c
2FF/	2F\	.
.	.	[3A/
2r	1D	3A/]
.	.	3%2Bni
2GG/	.	.
=151	=151	=151
*	*	*M2/1
*	*	*met(C)
*	*	*rscale:1
2CC/	1C	0c
2.FF/	.	.
.	2r	.
4GG/	.	.
!	!LO:N:vis=2.	!
4AA/	[y2C/	.
4BB-/	.	.
=-	=-	=
2.C/	4C/]yy	2r
.	4D\	.
!	!	!LO:N:vis=2.
.	2E-\	[y2G/
4BB-/	.	.
=152	=152	=152-
2GG/	2F\	4G/]yy
.	.	4A/
!LO:N:vis=1	!	!
[y2EE-	2G\	[2B-\
=-	=-	=
2EE-]yy	2E-\	4B-\]
.	.	4c\
2DD/	2F\	2d\
2CC/	2G\	2e-\
2r	4F\	4d\
.	4E-\	4c\
=153	=153	=153
2GG/	2D\	2B-\
2C/	2E-\	2.c\
1FF	2.F\	.
.	.	4B-\
.	.	4A/
.	4E-\	4G/
=-	=-	=
2BB-/	4D\	2F/
.	4C/	.
!	!	!LO:N:vis=1
2GG/	2BB-/	[y2B-\
=154	=154	=154-
1FF	1C	2B-\]yy
.	.	2A/
=-	=-	=
2GG/	2BB-/	2B-\
2EE-/	1E-	2G/
1BB-	.	1F
.	2D\	.
=155	=155	=155
*	*	*M2/1
*	*	*met(2/1)
*	*	*rscale:2
2EE-/	1E-	2r
1CC	.	1E-
.	2r	.
2DD/	2D\	2F/
=-	=-	=
2CC/	2.E-\	2.G/
2C/	.	.
.	8F\L	8A/L
.	8G\J	8B-/J
=156	=156	=156-
1FF	1A-	1c
*	*	*rscale:1
=-	=-	=
*M3/1	*	*M3/1
*met(3/2)	*	*met(3/2)
!! Want to do rscale:2 in the top part, but MuseData
!! is choking on the rhythm when that happens.
!	!	!LO:N:vis=0
3%2GG	1G	3%2B-
!	!	!LO:N:vis=0
3%2C	.	3%2e-
.	2r	.
!	!	!LO:N:vis=0
3%2BB-	.	3%2d
.	2G\	.
=157	=157	=157
*	*M2/1	*
*	*met(3/2)	*
!	!	!LO:N:vis=0
3%2C	3%2E-	3%2c
!	!	!LO:N:vis=1
3GG/	3D\	3B-\
!	!	!LO:N:vis=1
3AA/	3%2C	3A/
!	!	!LO:N:vis=0
3.C/	.	3%2G
.	[3E-\	.
6BB-/	.	.
=-	=-	=
!	!	!LO:N:vis=1
3AA-/	6E-\]	3c\
.	6F\	.
!	!	!LO:N:vis=1.
3%2GG	3.G\	3.B-\
!	!	!LO:N:vis=2
.	6A\	6c\
=158	=158	=158-
!	!	!LO:N:vis=1
3GG/	3B-\	3d\
!	!	!LO:N:vis=0
3%2C	3%2G	3%2e-
=-	=-	=
!	!	!LO:N:vis=1.
3D\	3%2F	3.f\
3%2BB-	.	.
!	!	!LO:N:vis=2
.	.	6e-\
!	!	!LO:N:vis=2
.	3G\	6d\
!	!	!LO:N:vis=2
.	.	6c\
!	!	!LO:N:vis=0
3C/	3E-\	3%2c
3%2GG	3%2D	.
!	!	!LO:N:vis=1
.	.	3Bni\
*	*	*rscale:1
=159	=159	=159
*M3/1	*M3/1	*M3/1
*met(O)	*met(O)	*met(O)
1AA	1C	1c
1.BB-	1.F	1.d
4C/	4E-\	4c\
4D\	4D\	4B-\
=160	=160	=160
2C/	2E-\	2c\
2BB-/	2F\	1d
2GG/	2G\	.
2AA-/	2C/	1c
1GG	1D	.
.	.	2Bni\
=161	=161	=161
0.CCl	0.Cl	0.cl
!!LO:LB:i:g=z
*	*	*rscale:1
=162||	=162||	=162||
*>E	*>E	*>E
*clefF4	*clefF4	*clefGv2
*k[b-e-]	*k[b-e-]	*k[b-e-]
*M3/1	*M3/1	*M3/1
*met(O|)	*met(O|)	*met(O|)
!!section: Et unam sanctam
!!!OMD: Et unam sanctam
0C	0G	0e-
2D\	1F	1d
2BB-/	.	.
=163	=163	=163
2C/	1.E-	1.c
1AA-	.	.
4BB-/	4D\	4B-\
4C/	4C/	4A/
2GG/	2D\	2B-\
[2C/	[2E-\	2c\
=164	=164	=164
4C/]	4E-\]	2G/
4BB-/	4F\	.
2GG/	2G\	2.B-\
2r	2.E-\	.
.	.	4A/
2.C/	.	4G/
.	4D\	4F/
.	2E-\	2G/
4BB-/	.	.
2C/	2C/	2E-/
=165	=165	=165
2.D\	2.BB-/	2D/
.	.	2.F/
4C/	4C/	.
2BB-/	4D\	.
.	4E-\	4G/
2C/	1C	2E-/
1GG	.	1D
.	2BBni/	.
=166	=166	=166
2r	1C	0.C
2.E-\	.	.
.	2r	.
4D\	.	.
2.C/	1E-	.
4BB-/	.	.
2AA/	2F\	.
=167	=167	=167
2BB-/	2D\	2r
1.C	2C/	1G
.	1E-	.
.	.	2.c\
1AA	1F	.
.	.	4B-\
.	.	2A/
=168	=168	=168
2r	0G	0B-
2.GG/	.	.
4AA/	.	.
2BB-/	.	.
2FF/	1A	1c
2AA/	.	.
=169	=169	=169
1GG	2.B-\	2.d\
.	8A\L	4e-\
.	8G\J	.
1FF	2A\	2.f\
.	2F\	.
.	.	8e-\L
.	.	8d\J
2C/	2.G\	2e-\
2BB-/	.	[2d\
.	4F\	.
=170	=170	=170
2.GG/	2G\	4d\]
.	.	4c\
.	2D\	2d\
4FF/	.	.
2GG/	1E-	2G/
2CC/	.	1c
1GG	1D	.
.	.	2Bni\
=171	=171	=171
0CC	2C/	0.c
.	2.E-\	.
.	4D\	.
.	2.C/	.
2r	.	.
.	4BB-/	.
2C/	2AA/	.
=172	=172	=172
1D	1BB-	2r
.	.	1F
2BB-/	2.D\	.
2.E-\	.	2.G/
.	4C/	.
.	2D\	.
4D\	.	4F/
2C/	2E-\	2E-/
=173	=173	=173
2BB-/	1F	1D
2D\	.	.
1.C	[0G	1.E-
2BB-/	.	2D/
=174	=174	=174
0.GG	0.G]	0.D
=175	=175	=175
1C	1E-	2r
.	.	1G
2BB-/	2D\	.
2C/	2C/	1A
1D	2.F\	.
.	.	2B-\
.	8E-\L	.
.	8F\J	.
=176	=176	=176
1C	2G\	2.c\
.	2E-\	.
.	.	4B-\
2D\	2F\	4A/
.	.	4G/
2BB-/	2.D\	1G
1AA	.	.
.	8C/L	.
.	8BB-/J	.
.	2C/	2F#i/
=177	=177	=177
2GG/	1D	2G/
2BB-/	.	4F/
.	.	4G/
1FF	1C	4A/
.	.	4G/
.	.	4F/
.	.	4E-/
2GG/	1BBn	1D
4FF/	.	.
4GG/	.	.
=178	=178	=178
4AA/	2r	1C
4GG/	.	.
4FF/	2.C/	.
4EE-/	.	.
1DD	.	1r
.	8BBni/L	.
.	8AA/J	.
.	2BBni/	.
1CC	[1C	1r
=179	=179	=179
2r	2C/]	1.G
1C	1E-	.
1FF	2F\	1A
.	1D	.
2GG/	.	2B-\
=180	=180	=180
2.AA/	2r	0c
.	2.C/	.
4BB-/	.	.
1C	.	.
.	4D\	.
.	2E-\	.
2BB-/	2F\	1d
2GG/	[2G\	.
=181	=181	=181
2C/	2G\]	2e-\
2.D\	2F\	2.f\
.	1D	.
4C/	.	4e-\
2BB-/	.	1d
1C	1E-	.
.	.	2c\
=182	=182	=182
2r	1D	0d
2GG/	.	.
1BB-	2r	.
.	2.F\	.
1AA	.	1c
.	4E-\	.
.	2F\	.
=183	=183	=183
0GG	2G\	2r
.	2E-\	2G/
.	2D\	1B-
.	1G	.
1DD	.	1A
.	2F#i\	.
=184	=184	=184
2GG/	2r	2G/
2C/	2G\	2E-/
2BB-/	1B-	2D/
2GG/	.	1G
1D	1A	.
.	.	2F#i/
=185	=185	=185
2r	2G\	1G
2.E-\	2.G\	.
.	.	2B-\
4D\	4F\	.
2C/	2E-\	2c\
2.BBn/	1D	1d
4AA/	.	.
=186	=186	=186
1C	2r	1e-
.	2C/	.
2.BB-/	4D\	2d\
.	4E-\	.
.	2.F\	4c\
8AA/L	.	4B-\
8GG/J	.	.
2FF/	.	2A/
.	4E-\	.
2GG/	2D\	2B-\
=187	=187	=187
2AA/	2C/	2.c\
2.FF/	2.F\	.
.	.	4B-\
.	.	4A/
4EE-/	4G\	4G/
2CC/	2E-\	1c
1GG	1D	.
.	.	2Bni\
=188	=188	=188
0.CCl	0.Cl	0.cl
==	==	==
*-	*-	*-
!!!RDF**kern: l=long note in original notation
!!!RDF**kern: i=editorial accidental
!!!RDF**kern: V=start of tuplet marker
!!!RDF**kern: Z=end of tuplet marker
!!!ENC:	Chris Gage 01-13-2015
!!!END:	2015/01/18/
!!!EED:	Jesse Rodin
!!!EEV:	2015/03/09/
!!!ONB:	Translated from MusicXML and edited on 2015/03/09/ by Craig Sapp
!!muse2ps: T^@{OPR}^u^@{ONM}{. }@{OTL}^C^@{COM}^i2I150v95,95,150Q16
